img/lists.svg

<svg width="40" height="50" viewBox="0 0 40 50" fill="none" xmlns="http://www.w3.org/2000/svg">
<g clip-path="url(#clip0_1_61)">
<path d="M22.818 25.7851C23.0799 25.7845 23.3308 25.6802 23.516 25.4951C23.7003 25.3097 23.8044 25.0594 23.806 24.7981C23.8048 24.6033 23.7462 24.4131 23.6374 24.2515C23.5287 24.0899 23.3747 23.9639 23.1947 23.8894C23.0147 23.8149 22.8167 23.7951 22.6256 23.8326C22.4344 23.8701 22.2585 23.9631 22.12 24.1001C21.9352 24.2855 21.831 24.5363 21.83 24.7981C21.8311 25.0598 21.9355 25.3105 22.1205 25.4955C22.3056 25.6806 22.5563 25.785 22.818 25.7861V25.7851Z" fill="#BB9D60"/>
<path d="M34.07 42.753C34.0443 42.5103 33.9297 42.2858 33.7483 42.1226C33.5669 41.9594 33.3315 41.8691 33.0875 41.8691C32.8435 41.8691 32.6081 41.9594 32.4267 42.1226C32.2453 42.2858 32.1307 42.5103 32.105 42.753H1.975V18.957H5.728V35.841C5.728 36.386 6.171 36.829 6.716 36.829H9.876C10.0083 36.8332 10.1401 36.8108 10.2636 36.763C10.3871 36.7153 10.4998 36.6432 10.5948 36.5511C10.6899 36.459 10.7656 36.3487 10.8172 36.2268C10.8688 36.1049 10.8954 35.9739 10.8954 35.8415C10.8954 35.7091 10.8688 35.578 10.8172 35.4561C10.7656 35.3342 10.6899 35.2239 10.5948 35.1318C10.4998 35.0397 10.3871 34.9677 10.2636 34.9199C10.1401 34.8722 10.0083 34.8498 9.876 34.854H7.704V13.132H14.024V24.795C14.024 25.34 14.467 25.783 15.012 25.783H19.16C19.4219 25.783 19.6731 25.6789 19.8583 25.4937C20.0435 25.3086 20.1475 25.0574 20.1475 24.7955C20.1475 24.5336 20.0435 24.2824 19.8583 24.0972C19.6731 23.912 19.4219 23.808 19.16 23.808H16V6.82498H32.1V7.20698C32.0958 7.3393 32.1182 7.47112 32.1659 7.59461C32.2137 7.7181 32.2857 7.83073 32.3779 7.92582C32.47 8.02092 32.5803 8.09653 32.7022 8.14816C32.8241 8.1998 32.9551 8.2264 33.0875 8.2264C33.2199 8.2264 33.3509 8.1998 33.4728 8.14816C33.5947 8.09653 33.705 8.02092 33.7971 7.92582C33.8893 7.83073 33.9613 7.7181 34.0091 7.59461C34.0568 7.47112 34.0792 7.3393 34.075 7.20698V6.82498H37.927V23.808H33.49C33.6641 23.7303 33.812 23.6039 33.9158 23.444C34.0196 23.2841 34.0749 23.0976 34.075 22.907V21.919C34.075 21.6571 33.971 21.4059 33.7858 21.2207C33.6006 21.0355 33.3494 20.9315 33.0875 20.9315C32.8256 20.9315 32.5744 21.0355 32.3892 21.2207C32.204 21.4059 32.1 21.6571 32.1 21.919V22.907C32.1 23.308 32.34 23.654 32.686 23.807H26.567C26.305 23.807 26.0537 23.9111 25.8684 24.0964C25.6831 24.2816 25.579 24.5329 25.579 24.795C25.579 25.057 25.6831 25.3083 25.8684 25.4936C26.0537 25.6789 26.305 25.783 26.567 25.783H37.927V34.853H17.68C17.418 34.853 17.1667 34.9571 16.9814 35.1424C16.7961 35.3276 16.692 35.5789 16.692 35.841C16.692 36.103 16.7961 36.3543 16.9814 36.5396C17.1667 36.7249 17.418 36.829 17.68 36.829H32.498C32.3748 36.9206 32.2747 37.0397 32.2058 37.1769C32.1368 37.3141 32.101 37.4655 32.101 37.619V38.606C32.101 38.8679 32.205 39.1191 32.3902 39.3042C32.5754 39.4894 32.8266 39.5935 33.0885 39.5935C33.3504 39.5935 33.6016 39.4894 33.7868 39.3042C33.972 39.1191 34.076 38.8679 34.076 38.606V37.618C34.0761 37.4646 34.0403 37.3132 33.9716 37.1761C33.9028 37.0389 33.803 36.9197 33.68 36.828H37.928V42.753H34.07ZM15.013 4.84998C14.8833 4.84998 14.7549 4.87554 14.6351 4.9252C14.5152 4.97487 14.4064 5.04766 14.3147 5.13942C14.2231 5.23117 14.1504 5.3401 14.1008 5.45996C14.0513 5.57982 14.0259 5.70828 14.026 5.83798V11.158H6.716C6.45397 11.158 6.20266 11.2621 6.01738 11.4474C5.83209 11.6326 5.728 11.8839 5.728 12.146V16.986H0.988C0.726139 16.986 0.474989 17.0899 0.289732 17.275C0.104475 17.4601 0.000265041 17.7111 0 17.973L0 43.75C0 44.296 0.442 44.738 0.988 44.738H32.66C32.7934 44.8027 32.9397 44.8364 33.088 44.8364C33.2363 44.8364 33.3826 44.8027 33.516 44.738H38.915C39.177 44.738 39.4283 44.6339 39.6136 44.4486C39.7989 44.2633 39.903 44.012 39.903 43.75V5.83798C39.9031 5.70819 39.8777 5.57966 39.8281 5.45973C39.7785 5.3398 39.7057 5.23083 39.6139 5.13906C39.5221 5.04729 39.4132 4.97452 39.2932 4.92492C39.1733 4.87531 39.0448 4.84984 38.915 4.84998H15.013Z" fill="#BB9D60"/>
<path d="M13.828 34.8599C13.5662 34.861 13.3155 34.9652 13.13 35.1499C12.9453 35.3354 12.8411 35.5862 12.84 35.8479C12.8416 36.1095 12.9462 36.3599 13.1311 36.5448C13.3161 36.7298 13.5665 36.8344 13.828 36.8359C14.088 36.8359 14.342 36.7299 14.526 36.5459C14.7107 36.3605 14.8149 36.1097 14.816 35.8479C14.8149 35.5862 14.7107 35.3354 14.526 35.1499C14.3405 34.9652 14.0898 34.861 13.828 34.8599ZM33.088 2.96294C33.3499 2.96268 33.6009 2.85847 33.786 2.67321C33.971 2.48795 34.075 2.2368 34.075 1.97494V0.987944C34.0668 0.731481 33.9592 0.488255 33.7749 0.309726C33.5906 0.131197 33.3441 0.0313721 33.0875 0.0313721C32.8309 0.0313721 32.5844 0.131197 32.4001 0.309726C32.2158 0.488255 32.1082 0.731481 32.1 0.987944V1.97494C32.1 2.52094 32.542 2.96294 33.088 2.96294ZM33.088 29.1329C33.3499 29.1327 33.6009 29.0285 33.786 28.8432C33.971 28.658 34.075 28.4068 34.075 28.1449V27.1579C34.0668 26.9015 33.9592 26.6583 33.7749 26.4797C33.5906 26.3012 33.3441 26.2014 33.0875 26.2014C32.8309 26.2014 32.5844 26.3012 32.4001 26.4797C32.2158 26.6583 32.1082 26.9015 32.1 27.1579V28.1449C32.1 28.6909 32.542 29.1329 33.088 29.1329ZM33.088 47.1099C32.826 47.1099 32.5747 47.214 32.3894 47.3993C32.2041 47.5846 32.1 47.8359 32.1 48.0979V49.0849C32.1082 49.3414 32.2158 49.5846 32.4001 49.7632C32.5844 49.9417 32.8309 50.0415 33.0875 50.0415C33.3441 50.0415 33.5906 49.9417 33.7749 49.7632C33.9592 49.5846 34.0668 49.3414 34.075 49.0849V48.0979C34.075 47.8361 33.971 47.5849 33.786 47.3997C33.6009 47.2144 33.3499 47.1102 33.088 47.1099ZM33.088 18.6629C33.3499 18.6627 33.6009 18.5585 33.786 18.3732C33.971 18.188 34.075 17.9368 34.075 17.6749V16.6879C34.0792 16.5556 34.0568 16.4238 34.0091 16.3003C33.9613 16.1768 33.8893 16.0642 33.7971 15.9691C33.705 15.874 33.5947 15.7984 33.4728 15.7468C33.3509 15.6951 33.2199 15.6685 33.0875 15.6685C32.9551 15.6685 32.8241 15.6951 32.7022 15.7468C32.5803 15.7984 32.47 15.874 32.3779 15.9691C32.2857 16.0642 32.2137 16.1768 32.1659 16.3003C32.1182 16.4238 32.0958 16.5556 32.1 16.6879V17.6749C32.1 18.2209 32.542 18.6629 33.088 18.6629ZM33.088 34.3729C33.3499 34.3727 33.6009 34.2685 33.786 34.0832C33.971 33.898 34.075 33.6468 34.075 33.3849V32.3979C34.0668 32.1415 33.9592 31.8983 33.7749 31.7197C33.5906 31.5412 33.3441 31.4414 33.0875 31.4414C32.8309 31.4414 32.5844 31.5412 32.4001 31.7197C32.2158 31.8983 32.1082 32.1415 32.1 32.3979V33.3849C32.1 33.9309 32.542 34.3729 33.088 34.3729ZM33.088 13.4329C33.2177 13.4329 33.3461 13.4074 33.4659 13.3577C33.5858 13.3081 33.6946 13.2353 33.7863 13.1435C33.8779 13.0517 33.9506 12.9428 34.0002 12.823C34.0497 12.7031 34.0751 12.5746 34.075 12.4449V11.4579C34.075 11.196 33.971 10.9449 33.7858 10.7597C33.6006 10.5745 33.3494 10.4704 33.0875 10.4704C32.8256 10.4704 32.5744 10.5745 32.3892 10.7597C32.204 10.9449 32.1 11.196 32.1 11.4579V12.4449C32.1 12.9909 32.542 13.4329 33.088 13.4329Z" fill="#BB9D60"/>
</g>
<defs>
<clipPath id="clip0_1_61">
<rect width="40" height="50" fill="white"/>
</clipPath>
</defs>
</svg>

<svg width="40" height="50" fill="none" xmlns="http://www.w3.org/2000/svg"><g clip-path="url(#clip0_1_61)" fill="#BB9D60"><path d="M22.818 25.785a.99.99 0 00.988-.987.99.99 0 00-1.686-.698.994.994 0 00-.29.698.992.992 0 00.988.988z"/><path d="M34.07 42.753a.988.988 0 00-1.965 0H1.975V18.957h3.753v16.884c0 .545.443.988.988.988h3.16a.987.987 0 100-1.975H7.704V13.132h6.32v11.663c0 .545.443.988.988.988h4.148a.988.988 0 000-1.975H16V6.825h16.1v.382a.989.989 0 101.975 0v-.382h3.852v16.983H33.49a.987.987 0 00.585-.901v-.988a.988.988 0 10-1.975 0v.988c0 .401.24.747.586.9h-6.119a.988.988 0 000 1.976h11.36v9.07H17.68a.988.988 0 000 1.976h14.818a.984.984 0 00-.397.79v.987a.987.987 0 101.975 0v-.988a.985.985 0 00-.396-.79h4.248v5.925H34.07zM15.013 4.85a.987.987 0 00-.987.988v5.32h-7.31a.988.988 0 00-.988.988v4.84H.988a.988.988 0 00-.988.987V43.75c0 .546.442.988.988.988H32.66a.98.98 0 00.856 0h5.399a.988.988 0 00.988-.988V5.838a.988.988 0 00-.988-.988H15.013z"/><path d="M13.828 34.86a.995.995 0 00-.698.29.995.995 0 00-.29.698.994.994 0 00.988.988.994.994 0 00.988-.988.995.995 0 00-.29-.698.995.995 0 00-.698-.29zm19.26-31.897a.988.988 0 00.987-.988V.988a.988.988 0 00-1.975 0v.987c0 .546.442.988.988.988zm0 26.17a.988.988 0 00.987-.988v-.987a.988.988 0 00-1.975 0v.987c0 .546.442.988.988.988zm0 17.977a.988.988 0 00-.988.988v.987a.988.988 0 001.975 0v-.987a.988.988 0 00-.987-.988zm0-28.447a.988.988 0 00.987-.988v-.987a.989.989 0 10-1.975 0v.987c0 .546.442.988.988.988zm0 15.71a.988.988 0 00.987-.988v-.987a.988.988 0 00-1.975 0v.987c0 .546.442.988.988.988zm0-20.94a.986.986 0 00.987-.988v-.987a.987.987 0 10-1.975 0v.987c0 .546.442.988.988.988z"/></g><defs><clipPath id="clip0_1_61"><path fill="#fff" d="M0 0h40v50H0z"/></clipPath></defs></svg>
